X: 1
T: Patrick Hutchinson's
M: 6/8
L: 1/8
R: jig
K: Gmaj
|:c | B3 AGF | G2 g fdc | B3 AGF | Ggf d2 c |
B3 AGF | G2 g fdc | BAB cBc | dgf d2 :|
|:B | Aff Agg | age fdB | Aff Agg | age d2 B |
Aff Agg | bag fde | fef gfg | age d2 :|
